X:1
T: Joseph Hume
C:
R:Strathspey
Q: 128
K:F
M:4/4
L:1/16
|:E2|FF3 F3G A3G Ff3|FF3 F3G AGFE D3E|FF3 F3G AF3 f3c|df3 c3A BAGF D2E2|
FF3 F3G A3G Ff3|FF3 F3G AGFE D3E|FF3 F3G AF3 f3c|df3 c3A BAGF D2E2|
Ff3 f3g a3g f3c|Af3 f3a g3a b3g|af3 eg3 fd3 cf3|df3 c3A BAGF D2E2|
Ff3 f3g a3g f3c|Af3 f3a g3a b3g|((3a2g2f2) ((3e2f2g2) ((3f2e2d2) ((3c2d2e2) |fa3 c3A BAGF D2:|
